getsomefishandchips.svg

<svg viewBox="0 0 24 24" xmlns="http://www.w3.org/2000/svg"><path d="M6.22526 6.15673L5.83374 6.15673C4.52108 6.15673 3.45702 7.22078 3.45702 8.53344L3.45702 14.1194L6.51364 14.1194L6.51364 6.44511C6.51358 6.28587 6.3845 6.1568 6.22526 6.15673Z M11.3498 7.59756L11.6888 7.79332C12.8255 8.44965 13.215 9.90317 12.5588 11.0399L9.76578 15.8775L7.1187 14.3492L10.9558 7.70312C11.0355 7.56524 11.2118 7.51799 11.3498 7.59756Z M21.7166 7.0035L23.6415 4.3771C23.9135 4.00613 23.5307 3.5105 23.103 3.67978L21.1361 4.45835C20.7604 4.60712 20.3332 4.53429 20.0281 4.26948L18.4302 2.88331C18.0828 2.58187 17.5574 2.92273 17.6912 3.36286L18.6373 6.47861C18.6727 6.59524 18.6323 6.72161 18.5359 6.79613C17.2562 7.79513 15.7201 9.37417 15.3788 11.3768C14.9528 13.8757 16.5011 16.3696 17.4628 17.6351C17.8561 18.1527 18.5863 18.2773 19.129 17.9191C20.4557 17.0436 22.7425 15.2035 23.1685 12.7045C23.5099 10.7021 22.5835 8.70321 21.7071 7.33674C21.6408 7.23449 21.6445 7.10184 21.7166 7.0035Z" fill="#f79219"/><path d="M6.22526 6.15673L5.83374 6.15673C5.65152 6.15673 5.47486 6.1791 5.30449 6.21791L5.30449 12.9102L3.45702 12.9102L3.45702 14.1194L6.51364 14.1194L6.51364 6.44511C6.51358 6.28587 6.3845 6.1568 6.22526 6.15673Z M11.6888 7.79332L11.4517 7.65644C11.7592 8.33163 11.7488 9.13947 11.3497 9.83086L8.55663 14.6684L7.33998 13.966L7.1187 14.3494L9.76578 15.8776L12.5588 11.04C13.2151 9.90329 12.8257 8.44965 11.6888 7.79332Z M23.6414 4.3771C23.9134 4.00613 23.5305 3.5105 23.1029 3.67978L21.6296 4.26295L20.5073 5.79435C20.4354 5.89272 20.4316 6.02526 20.4977 6.12759C21.3741 7.49405 22.3005 9.49291 21.9591 11.4954C21.5331 13.9943 19.2462 15.8344 17.9196 16.71C17.626 16.9037 17.2637 16.963 16.9236 16.8731C17.0947 17.1331 17.2744 17.3872 17.4625 17.6351C17.8559 18.1527 18.5861 18.2773 19.1287 17.9191C20.4554 17.0436 22.7423 15.2035 23.1683 12.7045C23.5096 10.7021 22.5833 8.70321 21.7069 7.33674C21.6406 7.23445 21.6444 7.10182 21.7165 7.0035L23.6414 4.3771Z" fill="#ef7816"/><path d="M2.43541 7.50107L2.0561 7.59816C0.784551 7.92379 0.017706 9.21867 0.343331 10.4902L1.72926 15.9015L4.69024 15.1432L2.78631 7.7088C2.74681 7.55451 2.58968 7.46149 2.43541 7.50107Z M7.4569 7.50107L7.83622 7.59816C9.10776 7.92379 9.87461 9.21867 9.54898 10.4902L8.16305 15.9015L5.20207 15.1432L7.10601 7.7088C7.1455 7.55451 7.30264 7.46149 7.4569 7.50107Z M17.5687 9.74501L19.8093 7.74737C20.1257 7.46515 19.876 6.94473 19.4579 7.01511L17.5348 7.3388C17.1676 7.40061 16.7964 7.25278 16.5722 6.95538L15.3983 5.39823C15.143 5.05966 14.6038 5.26595 14.6398 5.68842L14.8936 8.67951C14.903 8.79145 14.8424 8.8976 14.7411 8.94625C13.3953 9.60076 11.7066 10.729 11.0138 12.4689C10.1491 14.6399 11.0654 17.1861 11.6889 18.512C11.9441 19.0544 12.5784 19.307 13.1365 19.0885C14.5009 18.5543 16.9167 17.3351 17.7814 15.1641C18.4742 13.4243 18.0235 11.4441 17.4961 10.0436C17.456 9.93863 17.4849 9.8198 17.5687 9.74501Z" fill="#ffc91d"/><path d="M2.78631 7.7088C2.74675 7.55455 2.58969 7.46152 2.43541 7.50095L2.0561 7.59804C1.99346 7.61412 1.93313 7.63431 1.87303 7.65487L3.48109 13.9339L1.36422 14.4761L1.72926 15.9014L4.69024 15.143L2.78631 7.7088Z M8.20888 7.73008C8.42627 8.2175 8.47237 8.76412 8.33971 9.28106L6.95377 14.6924L5.41815 14.299L5.20195 15.1432L8.16293 15.9015L9.54886 10.4902C9.84111 9.34889 9.25189 8.19125 8.20888 7.73008Z M19.8093 7.74737C20.1257 7.46515 19.876 6.94473 19.4579 7.01511L17.7411 7.3041L16.3595 8.53586C16.2758 8.61068 16.2468 8.72945 16.2869 8.8344C16.8142 10.235 17.265 12.2152 16.5721 13.9549C15.7074 16.126 13.2917 17.3451 11.9273 17.8794C11.7732 17.9394 11.6078 17.965 11.4428 17.9544C11.5267 18.1576 11.6101 18.3446 11.6888 18.5121C11.944 19.0545 12.5783 19.3071 13.1364 19.0886C14.5008 18.5544 16.9166 17.3352 17.7813 15.1642C18.4741 13.4245 18.0235 11.4442 17.496 10.0437C17.456 9.93872 17.4849 9.81993 17.5687 9.74513L19.8093 7.74737Z" fill="#ffa91a"/><path d="M21.2868 21.231L2.71303 21.231C2.39196 21.231 2.1091 21.0199 2.01765 20.7122L0.0305231 14.0247C-0.107683 13.5597 0.240795 13.0926 0.725907 13.0926L23.2741 13.0926C23.7593 13.0926 24.1077 13.5597 23.9695 14.0247L21.9823 20.7122C21.8909 21.02 21.608 21.231 21.2868 21.231Z" fill="#e63950"/><path d="M2.22151 19.2295C2.1151 19.2295 2.01958 19.1582 1.98935 19.0554C1.9711 18.9936 1.97835 18.9272 2.00948 18.8708C2.04061 18.8145 2.09303 18.7729 2.15501 18.7555C2.28076 18.7192 2.4186 18.7954 2.45367 18.92C2.4718 18.9828 2.46455 19.0481 2.43432 19.105C2.3908 19.1816 2.30963 19.2291 2.22151 19.2295ZM1.95308 18.3009C1.84546 18.3009 1.74994 18.2283 1.72092 18.1255L0.493629 13.885C0.473073 13.8125 0.487583 13.7327 0.532322 13.6722C0.57827 13.6118 0.64961 13.5767 0.725786 13.5767L12.399 13.5767C12.5325 13.5767 12.6408 13.685 12.6408 13.8185C12.6408 13.9521 12.5325 14.0604 12.399 14.0604L1.04742 14.0604L2.18524 17.9913C2.20337 18.053 2.19612 18.1183 2.16468 18.1751C2.12245 18.2526 2.0413 18.3008 1.95308 18.3009Z" fill="#e8566f"/><path d="M23.274 13.0926L22.678 13.0926L20.7731 19.503C20.6816 19.8108 20.3988 20.0218 20.0777 20.0219L1.81245 20.0219L2.01753 20.7122C2.10898 21.0199 2.39184 21.231 2.71291 21.231L21.2867 21.231C21.6078 21.231 21.8907 21.0199 21.9821 20.7122L23.9692 14.0247C24.1077 13.5597 23.7592 13.0926 23.274 13.0926Z M10.1355 16.9874C10.1355 15.7372 11.149 14.7238 12.3991 14.7238C13.6492 14.7238 14.6626 15.7372 14.6626 16.9874C14.6626 18.2375 13.6492 19.2509 12.3991 19.2509C11.149 19.2509 10.1355 18.2375 10.1355 16.9874Z" fill="#d10028"/><path d="M23.3858 13.1021C23.4026 13.2084 23.3955 13.3171 23.3649 13.4202L21.3778 20.1077C21.2863 20.4155 21.0035 20.6265 20.6824 20.6266L2.10845 20.6266C2.06795 20.6266 2.02817 20.6232 1.98911 20.6166L2.01753 20.7123C2.10898 21.02 2.39184 21.2311 2.71291 21.2311L21.2867 21.2311C21.6078 21.2311 21.8907 21.02 21.9821 20.7123L23.9692 14.0248C24.0967 13.5964 23.8108 13.1673 23.3858 13.1021Z" fill="#b7022d"/></svg>

<svg viewBox="0 0 24 24" xmlns="http://www.w3.org/2000/svg"><path d="M6.225 6.157h-.391a2.377 2.377 0 0 0-2.377 2.376v5.586h3.057V6.445c0-.16-.13-.288-.289-.288Zm5.125 1.44.339.196a2.377 2.377 0 0 1 .87 3.247l-2.793 4.838-2.647-1.529 3.837-6.646a.289.289 0 0 1 .394-.105Zm10.367-.594 1.925-2.626c.271-.37-.111-.866-.539-.697l-1.967.778a1.082 1.082 0 0 1-1.108-.189L18.43 2.883c-.347-.301-.873.04-.739.48l.946 3.116a.294.294 0 0 1-.101.317c-1.28 1-2.816 2.578-3.157 4.58-.426 2.5 1.122 4.994 2.084 6.26a1.238 1.238 0 0 0 1.666.283c1.327-.875 3.613-2.716 4.04-5.215.34-2.002-.585-4-1.462-5.367a.294.294 0 0 1 .01-.333Z" fill="#f79219"/><path d="M6.225 6.157h-.391c-.182 0-.36.022-.53.06v6.693H3.457v1.21h3.057V6.444c0-.16-.13-.288-.289-.288Zm5.464 1.636-.237-.137a2.372 2.372 0 0 1-.102 2.175l-2.793 4.837-1.217-.702-.221.383 2.647 1.529 2.793-4.838a2.377 2.377 0 0 0-.87-3.247ZM23.64 4.377c.272-.37-.11-.866-.538-.697l-1.473.583-1.123 1.531a.294.294 0 0 0-.01.334c.877 1.366 1.803 3.365 1.462 5.367-.426 2.5-2.713 4.34-4.04 5.215a1.235 1.235 0 0 1-.995.163c.17.26.35.514.538.762a1.238 1.238 0 0 0 1.667.284c1.326-.875 3.613-2.716 4.04-5.215.34-2.002-.586-4-1.462-5.367a.294.294 0 0 1 .01-.333l1.924-2.627Z" fill="#ef7816"/><path d="m2.435 7.501-.379.097A2.377 2.377 0 0 0 .343 10.49l1.386 5.412 2.961-.759L2.786 7.71a.288.288 0 0 0-.35-.208Zm5.022 0 .38.097a2.377 2.377 0 0 1 1.712 2.892l-1.386 5.412-2.96-.759L7.105 7.71a.288.288 0 0 1 .35-.208Zm10.112 2.244 2.24-1.998c.317-.282.067-.802-.351-.732l-1.923.324a.998.998 0 0 1-.963-.384l-1.174-1.557c-.255-.338-.794-.132-.758.29l.254 2.992a.27.27 0 0 1-.153.266c-1.346.655-3.034 1.783-3.727 3.523-.865 2.17.051 4.717.675 6.043.255.542.89.795 1.447.576 1.365-.534 3.78-1.753 4.645-3.924.693-1.74.242-3.72-.285-5.12a.27.27 0 0 1 .073-.299Z" fill="#ffc91d"/><path d="M2.786 7.709a.289.289 0 0 0-.35-.208l-.38.097a2.435 2.435 0 0 0-.183.057l1.608 6.279-2.117.542.365 1.425 2.961-.758-1.904-7.434Zm5.423.021c.217.487.263 1.034.13 1.551l-1.385 5.411-1.536-.393-.216.844 2.96.758 1.387-5.41a2.375 2.375 0 0 0-1.34-2.76Zm11.6.017c.317-.282.067-.802-.351-.732l-1.717.29-1.381 1.23a.27.27 0 0 0-.073.3c.527 1.4.978 3.38.285 5.12-.865 2.171-3.28 3.39-4.645 3.924-.154.06-.32.086-.484.075.084.204.167.39.246.558.255.543.89.795 1.447.577 1.365-.535 3.78-1.754 4.645-3.925.693-1.74.242-3.72-.285-5.12a.27.27 0 0 1 .073-.299l2.24-1.998Z" fill="#ffa91a"/><path d="M21.287 21.231H2.713a.725.725 0 0 1-.695-.519L.03 14.025a.725.725 0 0 1 .695-.932h22.548c.485 0 .834.467.695.932l-1.987 6.687a.725.725 0 0 1-.695.519Z" fill="#e63950"/><path d="M2.222 19.23a.243.243 0 0 1-.213-.36.24.24 0 0 1 .146-.114.244.244 0 0 1 .299.164.246.246 0 0 1-.02.185.246.246 0 0 1-.212.125Zm-.269-.93a.242.242 0 0 1-.232-.175l-1.227-4.24a.247.247 0 0 1 .038-.213.242.242 0 0 1 .194-.095h11.673a.242.242 0 0 1 0 .483H1.047l1.138 3.931a.241.241 0 0 1-.232.31Z" fill="#e8566f"/><path d="M23.274 13.093h-.596l-1.905 6.41a.726.726 0 0 1-.695.519H1.812l.206.69a.725.725 0 0 0 .695.519h18.574a.725.725 0 0 0 .695-.519l1.987-6.687a.725.725 0 0 0-.695-.932Zm-13.139 3.894a2.264 2.264 0 1 1 4.528 0 2.264 2.264 0 0 1-4.527 0Z" fill="#d10028"/><path d="M23.386 13.102a.722.722 0 0 1-.021.318l-1.987 6.688a.726.726 0 0 1-.696.519H2.108a.715.715 0 0 1-.119-.01l.029.095a.725.725 0 0 0 .695.52h18.574a.725.725 0 0 0 .695-.52l1.987-6.687a.725.725 0 0 0-.583-.923Z" fill="#b7022d"/></svg>
